public/assets/sad.svg

<svg width="68" height="68" viewBox="0 0 68 68" fill="none" xmlns="http://www.w3.org/2000/svg">
<path d="M5.41587 2.93396C5.41587 7.99551 3.13778 21.214 10.0474 21.214C14.0155 21.214 19.6627 19.5692 20.527 14.4098C22.1565 4.68207 12.0363 5.67597 6.25798 5.67597" stroke="#676767" stroke-width="4" stroke-linecap="round" stroke-linejoin="round"/>
<path d="M58.4684 4.76182C62.2157 5.67694 63.3166 6.66782 62.6322 10.7536C62.2978 12.7498 60.5931 16.0786 59.1234 17.3547C56.9871 19.2097 49.7356 19.5553 47.7082 17.3547C39.2532 8.17793 57.2457 -3.37635 60.9947 4.76182" stroke="#676767" stroke-width="4" stroke-linecap="round" stroke-linejoin="round"/>
<path d="M66 64.172C57.7642 52.719 43.814 42.4762 29.4152 45.181C22.2235 46.532 17.1527 50.1546 11.2632 53.9148C7.58919 56.2605 4.74163 62.2804 2 66" stroke="#676767" stroke-width="4" stroke-linecap="round" stroke-linejoin="round"/>
</svg>

<svg xmlns="http://www.w3.org/2000/svg" width="68" height="68" fill="none"  stroke="#676767" stroke-width="4" stroke-linecap="round" stroke-linejoin="round" xmlns:v="https://vecta.io/nano"><path d="M5.416 2.934c0 5.062-2.278 18.28 4.632 18.28 3.968 0 9.615-1.645 10.48-6.804 1.63-9.728-8.5-8.734-14.27-8.734m52.2-.914c3.747.915 4.848 1.906 4.164 5.992-.334 1.996-2.04 5.325-3.5 6.6-2.136 1.855-9.388 2.2-11.415 0-8.455-9.177 9.538-20.73 13.287-12.593M66 64.172C57.764 52.72 43.814 42.476 29.415 45.18c-7.192 1.35-12.262 4.974-18.152 8.734C7.6 56.26 4.742 62.28 2 66"/></svg>
